; G-Code generated by Simplify3D(R) Version 4.0.1
; Jun 23, 2018 at 6:10:31 PM
; Settings Summary
;   processName,Process1
;   applyToModels,bltouchMount
;   profileName,ricky-printer
;   profileVersion,2018-06-23 17:58:08
;   baseProfile,Default
;   printMaterial,PLA
;   printQuality,Medium
;   printExtruders,
;   extruderName,Extruder 1
;   extruderToolheadNumber,0
;   extruderDiameter,0.4
;   extruderAutoWidth,1
;   extruderWidth,0.48
;   extrusionMultiplier,0.9
;   extruderUseRetract,1
;   extruderRetractionDistance,1
;   extruderExtraRestartDistance,0
;   extruderRetractionZLift,0
;   extruderRetractionSpeed,1800
;   extruderUseCoasting,0
;   extruderCoastingDistance,0.2
;   extruderUseWipe,0
;   extruderWipeDistance,5
;   primaryExtruder,0
;   layerHeight,0.3
;   topSolidLayers,3
;   bottomSolidLayers,3
;   perimeterOutlines,2
;   printPerimetersInsideOut,1
;   startPointOption,2
;   startPointOriginX,0
;   startPointOriginY,0
;   sequentialIslands,0
;   spiralVaseMode,0
;   firstLayerHeightPercentage,90
;   firstLayerWidthPercentage,100
;   firstLayerUnderspeed,0.5
;   useRaft,0
;   raftExtruder,0
;   raftTopLayers,3
;   raftBaseLayers,2
;   raftOffset,3
;   raftSeparationDistance,0.14
;   raftTopInfill,100
;   aboveRaftSpeedMultiplier,0.3
;   useSkirt,1
;   skirtExtruder,0
;   skirtLayers,1
;   skirtOutlines,1
;   skirtOffset,10
;   usePrimePillar,0
;   primePillarExtruder,999
;   primePillarWidth,12
;   primePillarLocation,7
;   primePillarSpeedMultiplier,1
;   useOozeShield,0
;   oozeShieldExtruder,999
;   oozeShieldOffset,2
;   oozeShieldOutlines,1
;   oozeShieldSidewallShape,1
;   oozeShieldSidewallAngle,30
;   oozeShieldSpeedMultiplier,1
;   infillExtruder,0
;   internalInfillPattern,Rectilinear
;   externalInfillPattern,Rectilinear
;   infillPercentage,20
;   outlineOverlapPercentage,15
;   infillExtrusionWidthPercentage,100
;   minInfillLength,5
;   infillLayerInterval,1
;   internalInfillAngles,45,-45
;   overlapInternalInfillAngles,0
;   externalInfillAngles,45,-45
;   generateSupport,0
;   supportExtruder,0
;   supportInfillPercentage,30
;   supportExtraInflation,0
;   supportBaseLayers,0
;   denseSupportExtruder,0
;   denseSupportLayers,0
;   denseSupportInfillPercentage,70
;   supportLayerInterval,1
;   supportHorizontalPartOffset,0.3
;   supportUpperSeparationLayers,1
;   supportLowerSeparationLayers,1
;   supportType,0
;   supportGridSpacing,4
;   maxOverhangAngle,45
;   supportAngles,0
;   temperatureName,Extruder 1,Heated Bed
;   temperatureNumber,0,0
;   temperatureSetpointCount,1,1
;   temperatureSetpointLayers,1,1
;   temperatureSetpointTemperatures,190,50
;   temperatureStabilizeAtStartup,1,1
;   temperatureHeatedBed,0,1
;   temperatureRelayBetweenLayers,0,0
;   temperatureRelayBetweenLoops,0,0
;   fanLayers,1,2
;   fanSpeeds,0,100
;   blipFanToFullPower,0
;   adjustSpeedForCooling,1
;   minSpeedLayerTime,15
;   minCoolingSpeedSlowdown,20
;   increaseFanForCooling,0
;   minFanLayerTime,45
;   maxCoolingFanSpeed,100
;   increaseFanForBridging,0
;   bridgingFanSpeed,100
;   use5D,1
;   relativeEdistances,0
;   allowEaxisZeroing,1
;   independentExtruderAxes,0
;   includeM10123,0
;   stickySupport,1
;   applyToolheadOffsets,0
;   gcodeXoffset,0
;   gcodeYoffset,0
;   gcodeZoffset,0
;   overrideMachineDefinition,0
;   machineTypeOverride,0
;   strokeXoverride,300
;   strokeYoverride,300
;   strokeZoverride,168
;   originOffsetXoverride,0
;   originOffsetYoverride,0
;   originOffsetZoverride,0
;   homeXdirOverride,-1
;   homeYdirOverride,-1
;   homeZdirOverride,-1
;   flipXoverride,1
;   flipYoverride,-1
;   flipZoverride,1
;   toolheadOffsets,0,0|0,0|0,0|0,0|0,0|0,0
;   overrideFirmwareConfiguration,0
;   firmwareTypeOverride,RepRap (Marlin/Repetier/Sprinter)
;   GPXconfigOverride,r2
;   baudRateOverride,250000
;   overridePrinterModels,0
;   printerModelsOverride
;   startingGcode,
;   layerChangeGcode,
;   retractionGcode,
;   toolChangeGcode,
;   endingGcode,M104 S0 ; turn off extruder,M140 S0 ; turn off bed,M84 ; disable motors
;   exportFileFormat,gcode
;   celebration,0
;   celebrationSong,Random Song
;   postProcessing,
;   defaultSpeed,2800
;   outlineUnderspeed,0.5
;   solidInfillUnderspeed,0.8
;   supportUnderspeed,0.8
;   rapidXYspeed,3800
;   rapidZspeed,1000
;   minBridgingArea,50
;   bridgingExtraInflation,0
;   bridgingExtrusionMultiplier,1
;   bridgingSpeedMultiplier,1
;   useFixedBridgingAngle,0
;   fixedBridgingAngle,0
;   applyBridgingToPerimeters,0
;   filamentDiameters,1.75|1.75|1.75|1.75|1.75|1.75
;   filamentPricesPerKg,46|46|46|46|46|46
;   filamentDensities,1.25|1.25|1.25|1.25|1.25|1.25
;   useMinPrintHeight,0
;   minPrintHeight,0
;   useMaxPrintHeight,0
;   maxPrintHeight,0
;   useDiaphragm,0
;   diaphragmLayerInterval,20
;   robustSlicing,1
;   mergeAllIntoSolid,0
;   onlyRetractWhenCrossingOutline,1
;   retractBetweenLayers,1
;   useRetractionMinTravel,0
;   retractionMinTravel,3
;   retractWhileWiping,0
;   onlyWipeOutlines,1
;   avoidCrossingOutline,0
;   maxMovementDetourFactor,3
;   toolChangeRetractionDistance,12
;   toolChangeExtraRestartDistance,-0.5
;   toolChangeRetractionSpeed,600
;   externalThinWallType,0
;   internalThinWallType,2
;   thinWallAllowedOverlapPercentage,10
;   singleExtrusionMinLength,1
;   singleExtrusionMinPrintingWidthPercentage,50
;   singleExtrusionMaxPrintingWidthPercentage,200
;   singleExtrusionEndpointExtension,0.2
;   horizontalSizeCompensation,0
G90
M82
M106 S0
M140 S50
M190 S50
M104 S190 T0
M109 S190 T0
G92 E0
G1 E-1.0000 F1800
G1 Z0.270 F1000
; process Process1
; layer 1, Z = 0.270
T0
; tool H0.300 W0.480
; skirt
G1 X366.297 Y355.722 F3800
G1 E0.0000 F540
G92 E0
G1 X372.222 Y349.797 E0.4515 F1400
G1 X372.310 Y349.760 E0.4567
G1 X387.690 Y349.760 E1.2853
G1 X387.778 Y349.797 E1.2905
G1 X393.703 Y355.722 E1.7420
G1 X393.740 Y355.810 E1.7471
G1 X393.740 Y404.190 E4.3539
G1 X393.703 Y404.278 E4.3591
G1 X387.778 Y410.203 E4.8106
G1 X387.690 Y410.240 E4.8157
G1 X372.310 Y410.240 E5.6444
G1 X372.222 Y410.203 E5.6495
G1 X366.297 Y404.278 E6.1011
G1 X366.260 Y404.190 E6.1062
G1 X366.260 Y355.810 E8.7130
G1 X366.297 Y355.722 E8.7181
G92 E0
G1 E-1.0000 F1800
; inner perimeter
G1 X377.220 Y360.720 F3800
G1 E0.0000 F1800
G92 E0
G1 X382.780 Y360.720 E0.2996 F1050
G1 X382.780 Y362.868 E0.4153
G1 X382.488 Y362.968 E0.4319
G1 X382.371 Y362.817 E0.4423
G1 X381.979 Y362.457 E0.4709
G1 X381.546 Y362.174 E0.4988
G1 X381.280 Y362.044 E0.5147
G1 X380.791 Y361.876 E0.5426
G1 X380.281 Y361.791 E0.5705
G1 X379.985 Y361.779 E0.5864
G1 X379.470 Y361.821 E0.6143
G1 X378.954 Y361.952 E0.6430
G1 X378.480 Y362.160 E0.6709
G1 X378.226 Y362.311 E0.6868
G1 X377.817 Y362.629 E0.7147
G1 X377.495 Y362.980 E0.7403
G1 X377.220 Y362.872 E0.7562
G1 X377.220 Y360.720 E0.8722
G1 X377.512 Y367.032 F3800
G92 E0
G1 X377.629 Y367.183 E0.0103 F1050
G1 X378.021 Y367.543 E0.0390
G1 X378.454 Y367.826 E0.0668
G1 X378.720 Y367.956 E0.0828
G1 X379.195 Y368.119 E0.1099
G1 X379.484 Y368.180 E0.1258
G1 X380.000 Y368.222 E0.1537
G1 X380.530 Y368.179 E0.1824
G1 X381.046 Y368.048 E0.2110
G1 X381.520 Y367.840 E0.2389
G1 X381.774 Y367.689 E0.2549
G1 X382.183 Y367.371 E0.2827
G1 X382.505 Y367.020 E0.3084
G1 X382.780 Y367.128 E0.3243
G1 X382.780 Y392.868 E1.7112
G1 X382.488 Y392.968 E1.7278
G1 X382.380 Y392.829 E1.7373
G1 X382.171 Y392.620 E1.7533
G1 X381.774 Y392.311 E1.7804
G1 X381.520 Y392.160 E1.7963
G1 X381.046 Y391.952 E1.8242
G1 X380.530 Y391.821 E1.8529
G1 X380.000 Y391.778 E1.8815
G1 X379.470 Y391.821 E1.9102
G1 X378.954 Y391.952 E1.9389
G1 X378.480 Y392.160 E1.9668
G1 X378.226 Y392.311 E1.9827
G1 X377.817 Y392.629 E2.0106
G1 X377.495 Y392.980 E2.0362
G1 X377.220 Y392.872 E2.0521
G1 X377.220 Y367.132 E3.4391
G1 X377.512 Y367.032 E3.4557
G92 E0
G1 E-1.0000 F1800
G1 X377.512 Y397.032 F3800
G1 E0.0000 F1800
G92 E0
G1 X377.620 Y397.171 E0.0095 F1050
G1 X377.829 Y397.380 E0.0254
G1 X378.226 Y397.689 E0.0525
G1 X378.480 Y397.840 E0.0685
G1 X378.954 Y398.048 E0.0963
G1 X379.470 Y398.179 E0.1250
G1 X380.000 Y398.222 E0.1537
G1 X380.530 Y398.179 E0.1824
G1 X381.046 Y398.048 E0.2110
G1 X381.520 Y397.840 E0.2389
G1 X381.774 Y397.689 E0.2549
G1 X382.171 Y397.380 E0.2819
G1 X382.380 Y397.171 E0.2979
G1 X382.488 Y397.032 E0.3074
G1 X382.780 Y397.132 E0.3240
G1 X382.780 Y399.280 E0.4397
G1 X377.220 Y399.280 E0.7393
G1 X377.220 Y397.132 E0.8551
G1 X377.512 Y397.032 E0.8717
; outer perimeter
G1 X376.740 Y399.760 F3800
G92 E0
G1 X376.740 Y360.240 E2.1294 F700
G1 X383.260 Y360.240 E2.4807
G1 X383.260 Y399.760 E4.6101
G1 X376.740 Y399.760 E4.9614
G1 X378.497 Y397.291 F3800
G92 E0
G1 X378.700 Y397.412 E0.0127 F700
G1 X379.110 Y397.592 E0.0369
G1 X379.549 Y397.703 E0.0613
G1 X380.000 Y397.741 E0.0856
G1 X380.451 Y397.703 E0.1100
G1 X380.890 Y397.592 E0.1344
G1 X381.300 Y397.412 E0.1585
G1 X381.503 Y397.291 E0.1713
G1 X381.852 Y397.020 E0.1951
G1 X382.020 Y396.852 E0.2079
G1 X382.295 Y396.499 E0.2320
G1 X382.510 Y396.101 E0.2564
G1 X382.657 Y395.673 E0.2808
G1 X382.731 Y395.231 E0.3049
G1 X382.740 Y394.995 E0.3176
G1 X382.703 Y394.549 E0.3418
G1 X382.592 Y394.110 E0.3662
G1 X382.412 Y393.700 E0.3903
G1 X382.291 Y393.497 E0.4030
G1 X382.020 Y393.148 E0.4269
G1 X381.852 Y392.980 E0.4396
G1 X381.503 Y392.709 E0.4635
G1 X381.300 Y392.588 E0.4762
G1 X380.890 Y392.408 E0.5003
G1 X380.451 Y392.297 E0.5247
G1 X380.000 Y392.259 E0.5491
G1 X379.549 Y392.297 E0.5735
G1 X379.110 Y392.408 E0.5979
G1 X378.700 Y392.588 E0.6220
G1 X378.497 Y392.709 E0.6347
G1 X378.144 Y392.984 E0.6589
G1 X377.837 Y393.317 E0.6833
G1 X377.590 Y393.695 E0.7076
G1 X377.410 Y394.105 E0.7318
G1 X377.342 Y394.332 E0.7445
G1 X377.268 Y394.774 E0.7686
G1 X377.270 Y395.232 E0.7933
G1 X377.298 Y395.456 E0.8055
G1 X377.408 Y395.890 E0.8296
G1 X377.588 Y396.300 E0.8537
G1 X377.709 Y396.503 E0.8665
G1 X377.980 Y396.852 E0.8903
G1 X378.148 Y397.020 E0.9031
G1 X378.497 Y397.291 E0.9269
G92 E0
G1 E-1.0000 F1800
G1 X380.000 Y367.741 F3800
G1 E0.0000 F1800
G92 E0
G1 X380.451 Y367.703 E0.0244 F700
G1 X380.890 Y367.592 E0.0488
G1 X381.300 Y367.412 E0.0729
G1 X381.503 Y367.291 E0.0856
G1 X381.856 Y367.016 E0.1098
G1 X382.163 Y366.683 E0.1342
G1 X382.410 Y366.305 E0.1585
G1 X382.590 Y365.895 E0.1827
G1 X382.658 Y365.668 E0.1954
G1 X382.731 Y365.226 E0.2195
G1 X382.731 Y364.774 E0.2439
G1 X382.658 Y364.332 E0.2680
G1 X382.590 Y364.105 E0.2808
G1 X382.412 Y363.700 E0.3046
G1 X382.291 Y363.497 E0.3174
G1 X382.016 Y363.144 E0.3415
G1 X381.683 Y362.837 E0.3659
G1 X381.309 Y362.592 E0.3900
G1 X381.096 Y362.488 E0.4027
G1 X380.673 Y362.343 E0.4269
G1 X380.231 Y362.269 E0.4510
G1 X379.995 Y362.260 E0.4637
G1 X379.549 Y362.297 E0.4878
G1 X379.110 Y362.408 E0.5122
G1 X378.700 Y362.588 E0.5364
G1 X378.497 Y362.709 E0.5491
G1 X378.144 Y362.984 E0.5732
G1 X377.837 Y363.317 E0.5976
G1 X377.589 Y363.696 E0.6220
G1 X377.406 Y364.116 E0.6467
G1 X377.342 Y364.332 E0.6589
G1 X377.269 Y364.774 E0.6830
G1 X377.269 Y365.226 E0.7074
G1 X377.342 Y365.668 E0.7315
G1 X377.410 Y365.895 E0.7442
G1 X377.588 Y366.300 E0.7681
G1 X377.709 Y366.503 E0.7808
G1 X377.984 Y366.856 E0.8049
G1 X378.317 Y367.163 E0.8293
G1 X378.691 Y367.408 E0.8535
G1 X378.904 Y367.512 E0.8662
G1 X379.322 Y367.655 E0.8901
G1 X379.554 Y367.704 E0.9028
G1 X380.000 Y367.741 E0.9269
; gap fill
G1 X382.780 Y366.489 F3800
G92 E0
G1 X382.847 Y366.555 E0.0051 F1120
G92 E0
G1 E-1.0000 F1800
G1 X377.180 Y363.603 F3800
G1 E0.0000 F1800
G92 E0
G1 X377.153 Y363.576 E0.0020 F1120
G1 X377.153 Y393.445 F3800
G92 E0
G1 X377.220 Y393.511 E0.0051 F1120
G92 E0
G1 E-1.0000 F1800
G1 X382.820 Y396.396 F3800
G1 E0.0000 F1800
G92 E0
G1 X382.847 Y396.424 E0.0021 F1120
; solid layer
G1 X382.234 Y397.847 F3800
G92 E0
G1 X382.372 Y397.985 E0.0105 F1120
G1 X382.372 Y398.664 E0.0471
G1 X381.835 Y398.127 E0.0879
G1 X381.707 Y398.203 E0.0960
G1 X381.378 Y398.348 E0.1154
G1 X381.901 Y398.872 E0.1553
G1 X381.223 Y398.872 E0.1919
G1 X380.865 Y398.515 E0.2191
G1 X380.598 Y398.582 E0.2340
G1 X380.280 Y398.609 E0.2511
G1 X380.544 Y398.872 E0.2712
G1 X379.865 Y398.872 E0.3078
G1 X379.591 Y398.598 E0.3287
G1 X379.402 Y398.582 E0.3389
G1 X378.821 Y398.435 E0.3712
G1 X378.693 Y398.379 E0.3787
G1 X379.186 Y398.872 E0.4162
G1 X378.507 Y398.872 E0.4528
G1 X377.628 Y397.993 E0.5198
G1 X377.628 Y398.672 E0.5564
G1 X377.828 Y398.872 E0.5717
G92 E0
G1 E-1.0000 F1800
G1 X377.840 Y392.095 F3800
G1 E0.0000 F1800
G92 E0
G1 X377.628 Y391.883 E0.0161 F1120
G1 X377.628 Y391.204 E0.0527
G1 X378.247 Y391.824 E0.0999
G1 X378.293 Y391.797 E0.1027
G1 X378.714 Y391.612 E0.1275
G1 X377.628 Y390.526 E0.2103
G1 X377.628 Y389.847 E0.2469
G1 X379.240 Y391.459 E0.3697
G1 X379.402 Y391.418 E0.3787
G1 X379.841 Y391.381 E0.4025
G1 X377.628 Y389.168 E0.5711
G1 X377.628 Y388.489 E0.6077
G1 X380.553 Y391.414 E0.8305
G1 X380.598 Y391.418 E0.8330
G1 X381.179 Y391.565 E0.8653
G1 X381.541 Y391.724 E0.8866
G1 X377.628 Y387.810 E1.1848
G1 X377.628 Y387.132 E1.2214
G1 X382.372 Y391.876 E1.5829
G1 X382.372 Y391.197 E1.6195
G1 X377.628 Y386.453 E1.9810
G1 X377.628 Y385.774 E2.0175
G1 X382.372 Y390.518 E2.3790
G1 X382.372 Y389.839 E2.4156
G1 X377.628 Y385.095 E2.7771
G1 X377.628 Y384.416 E2.8137
G1 X382.372 Y389.160 E3.1752
G1 X382.372 Y388.481 E3.2117
G1 X377.628 Y383.737 E3.5732
G1 X377.628 Y383.059 E3.6098
G1 X382.372 Y387.803 E3.9713
G1 X382.372 Y387.124 E4.0079
G1 X377.628 Y382.380 E4.3694
G1 X377.628 Y381.701 E4.4059
G1 X382.372 Y386.445 E4.7674
G1 X382.372 Y385.766 E4.8040
G1 X377.628 Y381.022 E5.1655
G1 X377.628 Y380.343 E5.2021
G1 X382.372 Y385.087 E5.5636
G1 X382.372 Y384.408 E5.6001
G1 X377.628 Y379.664 E5.9616
G1 X377.628 Y378.986 E5.9982
G1 X382.372 Y383.730 E6.3597
G1 X382.372 Y383.051 E6.3963
G1 X377.628 Y378.307 E6.7578
G1 X377.628 Y377.628 E6.7943
G1 X382.372 Y382.372 E7.1558
G1 X382.372 Y381.693 E7.1924
G1 X377.628 Y376.949 E7.5539
G1 X377.628 Y376.270 E7.5905
G1 X382.372 Y381.014 E7.9520
G1 X382.372 Y380.336 E7.9885
G1 X377.628 Y375.592 E8.3500
G1 X377.628 Y374.913 E8.3866
G1 X382.372 Y379.657 E8.7481
G1 X382.372 Y378.978 E8.7847
G1 X377.628 Y374.234 E9.1462
G1 X377.628 Y373.555 E9.1828
G1 X382.372 Y378.299 E9.5442
G1 X382.372 Y377.620 E9.5808
G1 X377.628 Y372.876 E9.9423
G1 X377.628 Y372.197 E9.9789
G1 X382.372 Y376.941 E10.3404
G1 X382.372 Y376.263 E10.3770
G1 X377.628 Y371.519 E10.7384
G1 X377.628 Y370.840 E10.7750
G1 X382.372 Y375.584 E11.1365
G1 X382.372 Y374.905 E11.1731
G1 X377.628 Y370.161 E11.5346
G1 X377.628 Y369.482 E11.5712
G1 X382.372 Y374.226 E11.9327
G1 X382.372 Y373.547 E11.9692
G1 X377.628 Y368.803 E12.3307
G1 X377.628 Y368.124 E12.3673
G1 X382.372 Y372.868 E12.7288
G1 X382.372 Y372.190 E12.7654
G1 X378.471 Y368.288 E13.0626
G1 X378.563 Y368.334 E13.0682
G1 X379.086 Y368.513 E13.0980
G1 X379.426 Y368.584 E13.1167
G1 X379.447 Y368.586 E13.1178
G1 X382.372 Y371.511 E13.3407
G1 X382.372 Y370.832 E13.3773
G1 X380.159 Y368.619 E13.5459
G1 X380.598 Y368.582 E13.5697
G1 X380.760 Y368.541 E13.5787
G1 X382.372 Y370.153 E13.7015
G1 X382.372 Y369.474 E13.7381
G1 X381.286 Y368.388 E13.8209
G1 X381.707 Y368.203 E13.8457
G1 X381.753 Y368.176 E13.8485
G1 X382.372 Y368.796 E13.8957
G1 X382.372 Y368.117 E13.9323
G1 X382.160 Y367.905 E13.9484
G92 E0
G1 E-1.0000 F1800
G1 X382.172 Y361.128 F3800
G1 E0.0000 F1800
G92 E0
G1 X382.372 Y361.329 E0.0153 F1120
G1 X382.372 Y362.007 E0.0519
G1 X381.493 Y361.128 E0.1189
G1 X380.814 Y361.128 E0.1554
G1 X381.308 Y361.622 E0.1931
G1 X380.892 Y361.479 E0.2168
G1 X380.405 Y361.398 E0.2434
G1 X380.135 Y361.128 E0.2640
G1 X379.456 Y361.128 E0.3006
G1 X379.720 Y361.391 E0.3206
G1 X379.402 Y361.418 E0.3378
G1 X379.135 Y361.485 E0.3527
G1 X378.777 Y361.128 E0.3799
G1 X378.099 Y361.128 E0.4165
G1 X378.622 Y361.652 E0.4564
G1 X378.293 Y361.797 E0.4758
G1 X378.165 Y361.873 E0.4838
G1 X377.628 Y361.336 E0.5247
G1 X377.628 Y362.015 E0.5613
G1 X377.766 Y362.153 E0.5718
G92 E0
G1 E-1.0000 F1800
; layer 2, Z = 0.570
M106 S255
; inner perimeter
G1 X377.829 Y362.620 F3800
G1 Z0.570 F1000
G1 E0.0000 F1800
G92 E0
G1 X377.620 Y362.829 E0.0160 F2100
G1 X377.512 Y362.968 E0.0254
G1 X377.220 Y362.868 E0.0421
G1 X377.220 Y360.720 E0.1578
