; G-Code generated by Simplify3D(R) Version 4.0.1
; Jun 23, 2018 at 9:28:14 PM
; Settings Summary
;   processName,Process1
;   applyToModels,USB-SD-MicroSD_Card_Holder_-_v2.0
;   profileName,ricky-printer
;   profileVersion,2018-06-23 17:58:08
;   baseProfile,Default
;   printMaterial,PLA
;   printQuality,Medium
;   printExtruders,
;   extruderName,Extruder 1
;   extruderToolheadNumber,0
;   extruderDiameter,0.4
;   extruderAutoWidth,1
;   extruderWidth,0.48
;   extrusionMultiplier,0.9
;   extruderUseRetract,1
;   extruderRetractionDistance,1
;   extruderExtraRestartDistance,0
;   extruderRetractionZLift,0
;   extruderRetractionSpeed,1800
;   extruderUseCoasting,0
;   extruderCoastingDistance,0.2
;   extruderUseWipe,0
;   extruderWipeDistance,5
;   primaryExtruder,0
;   layerHeight,0.3
;   topSolidLayers,3
;   bottomSolidLayers,3
;   perimeterOutlines,2
;   printPerimetersInsideOut,1
;   startPointOption,2
;   startPointOriginX,0
;   startPointOriginY,0
;   sequentialIslands,0
;   spiralVaseMode,0
;   firstLayerHeightPercentage,90
;   firstLayerWidthPercentage,100
;   firstLayerUnderspeed,0.5
;   useRaft,0
;   raftExtruder,0
;   raftTopLayers,3
;   raftBaseLayers,2
;   raftOffset,3
;   raftSeparationDistance,0.14
;   raftTopInfill,100
;   aboveRaftSpeedMultiplier,0.3
;   useSkirt,1
;   skirtExtruder,0
;   skirtLayers,1
;   skirtOutlines,1
;   skirtOffset,10
;   usePrimePillar,0
;   primePillarExtruder,999
;   primePillarWidth,12
;   primePillarLocation,7
;   primePillarSpeedMultiplier,1
;   useOozeShield,0
;   oozeShieldExtruder,999
;   oozeShieldOffset,2
;   oozeShieldOutlines,1
;   oozeShieldSidewallShape,1
;   oozeShieldSidewallAngle,30
;   oozeShieldSpeedMultiplier,1
;   infillExtruder,0
;   internalInfillPattern,Rectilinear
;   externalInfillPattern,Rectilinear
;   infillPercentage,20
;   outlineOverlapPercentage,15
;   infillExtrusionWidthPercentage,100
;   minInfillLength,5
;   infillLayerInterval,1
;   internalInfillAngles,45,-45
;   overlapInternalInfillAngles,0
;   externalInfillAngles,45,-45
;   generateSupport,0
;   supportExtruder,0
;   supportInfillPercentage,30
;   supportExtraInflation,0
;   supportBaseLayers,0
;   denseSupportExtruder,0
;   denseSupportLayers,0
;   denseSupportInfillPercentage,70
;   supportLayerInterval,1
;   supportHorizontalPartOffset,0.3
;   supportUpperSeparationLayers,1
;   supportLowerSeparationLayers,1
;   supportType,0
;   supportGridSpacing,4
;   maxOverhangAngle,45
;   supportAngles,0
;   temperatureName,Extruder 1,Heated Bed
;   temperatureNumber,0,0
;   temperatureSetpointCount,1,1
;   temperatureSetpointLayers,1,1
;   temperatureSetpointTemperatures,190,50
;   temperatureStabilizeAtStartup,1,1
;   temperatureHeatedBed,0,1
;   temperatureRelayBetweenLayers,0,0
;   temperatureRelayBetweenLoops,0,0
;   fanLayers,1,2
;   fanSpeeds,0,100
;   blipFanToFullPower,0
;   adjustSpeedForCooling,1
;   minSpeedLayerTime,15
;   minCoolingSpeedSlowdown,20
;   increaseFanForCooling,0
;   minFanLayerTime,45
;   maxCoolingFanSpeed,100
;   increaseFanForBridging,0
;   bridgingFanSpeed,100
;   use5D,1
;   relativeEdistances,0
;   allowEaxisZeroing,1
;   independentExtruderAxes,0
;   includeM10123,0
;   stickySupport,1
;   applyToolheadOffsets,0
;   gcodeXoffset,0
;   gcodeYoffset,0
;   gcodeZoffset,0
;   overrideMachineDefinition,0
;   machineTypeOverride,0
;   strokeXoverride,300
;   strokeYoverride,300
;   strokeZoverride,168
;   originOffsetXoverride,0
;   originOffsetYoverride,0
;   originOffsetZoverride,0
;   homeXdirOverride,-1
;   homeYdirOverride,-1
;   homeZdirOverride,-1
;   flipXoverride,1
;   flipYoverride,-1
;   flipZoverride,1
;   toolheadOffsets,0,0|0,0|0,0|0,0|0,0|0,0
;   overrideFirmwareConfiguration,0
;   firmwareTypeOverride,RepRap (Marlin/Repetier/Sprinter)
;   GPXconfigOverride,r2
;   baudRateOverride,250000
;   overridePrinterModels,0
;   printerModelsOverride
;   startingGcode,
;   layerChangeGcode,
;   retractionGcode,
;   toolChangeGcode,
;   endingGcode,M104 S0 ; turn off extruder,M140 S0 ; turn off bed,M84 ; disable motors
;   exportFileFormat,gcode
;   celebration,0
;   celebrationSong,Random Song
;   postProcessing,
;   defaultSpeed,2800
;   outlineUnderspeed,0.5
;   solidInfillUnderspeed,0.8
;   supportUnderspeed,0.8
;   rapidXYspeed,3800
;   rapidZspeed,1000
;   minBridgingArea,50
;   bridgingExtraInflation,0
;   bridgingExtrusionMultiplier,1
;   bridgingSpeedMultiplier,1
;   useFixedBridgingAngle,0
;   fixedBridgingAngle,0
;   applyBridgingToPerimeters,0
;   filamentDiameters,1.75|1.75|1.75|1.75|1.75|1.75
;   filamentPricesPerKg,46|46|46|46|46|46
;   filamentDensities,1.25|1.25|1.25|1.25|1.25|1.25
;   useMinPrintHeight,0
;   minPrintHeight,0
;   useMaxPrintHeight,0
;   maxPrintHeight,0
;   useDiaphragm,0
;   diaphragmLayerInterval,20
;   robustSlicing,1
;   mergeAllIntoSolid,0
;   onlyRetractWhenCrossingOutline,1
;   retractBetweenLayers,1
;   useRetractionMinTravel,0
;   retractionMinTravel,3
;   retractWhileWiping,0
;   onlyWipeOutlines,1
;   avoidCrossingOutline,0
;   maxMovementDetourFactor,3
;   toolChangeRetractionDistance,12
;   toolChangeExtraRestartDistance,-0.5
;   toolChangeRetractionSpeed,600
;   externalThinWallType,0
;   internalThinWallType,2
;   thinWallAllowedOverlapPercentage,10
;   singleExtrusionMinLength,1
;   singleExtrusionMinPrintingWidthPercentage,50
;   singleExtrusionMaxPrintingWidthPercentage,200
;   singleExtrusionEndpointExtension,0.2
;   horizontalSizeCompensation,0
G90
M82
M106 S0
M140 S50
M190 S50
M104 S190 T0
M109 S190 T0
G92 E0
G1 E-1.0000 F1800
G1 Z0.270 F1000
; process Process1
; layer 1, Z = 0.270
T0
; tool H0.300 W0.480
; skirt
G1 X341.162 Y353.797 F3800
G1 E0.0000 F540
G92 E0
G1 X341.251 Y353.760 E0.0051 F1400
G1 X389.750 Y353.760 E2.6184
G1 X389.753 Y353.761 E2.6185
G1 X498.749 Y353.760 E8.4914
G1 X498.838 Y353.796 E8.4966
G1 X504.763 Y359.722 E8.9481
G1 X504.800 Y359.810 E8.9532
G1 X504.800 Y400.190 E11.1289
G1 X504.763 Y400.278 E11.1341
G1 X498.838 Y406.203 E11.5856
G1 X498.749 Y406.240 E11.5907
G1 X341.251 Y406.240 E20.0770
G1 X341.162 Y406.203 E20.0821
G1 X335.237 Y400.278 E20.5336
G1 X335.200 Y400.190 E20.5388
G1 X335.200 Y359.810 E22.7145
G1 X335.237 Y359.722 E22.7197
G1 X341.162 Y353.797 E23.1712
G92 E0
G1 E-1.0000 F1800
; inner perimeter
G1 X346.160 Y364.720 F3800
G1 E0.0000 F1800
G92 E0
G1 X384.840 Y364.720 E2.0841 F1050
G1 X493.839 Y364.720 E7.9572
G1 X493.839 Y395.280 E9.6038
G1 X346.160 Y395.280 E17.5609
G1 X346.160 Y364.720 E19.2075
; outer perimeter
G1 X345.680 Y364.240 F3800
G92 E0
G1 X385.320 Y364.240 E2.1359 F700
G1 X494.320 Y364.240 E8.0089
G1 X494.320 Y395.760 E9.7072
G1 X345.680 Y395.760 E17.7161
G1 X345.680 Y364.240 E19.4144
; inner perimeter
G1 X346.900 Y371.820 F3800
G92 E0
G1 X346.900 Y388.120 E0.8783 F1050
G1 X350.980 Y388.120 E1.0981
G1 X350.980 Y371.820 E1.9764
G1 X346.900 Y371.820 E2.1962
; outer perimeter
G1 X347.380 Y372.300 F3800
G92 E0
G1 X347.380 Y387.640 E0.8265 F700
G1 X350.500 Y387.640 E0.9947
G1 X350.500 Y372.300 E1.8212
G1 X347.380 Y372.300 E1.9893
; inner perimeter
G1 X351.540 Y371.820 F3800
G92 E0
G1 X351.540 Y388.120 E0.8783 F1050
G1 X355.621 Y388.120 E1.0981
G1 X355.621 Y371.820 E1.9764
G1 X351.540 Y371.820 E2.1962
; outer perimeter
G1 X352.020 Y372.300 F3800
G92 E0
G1 X352.020 Y387.640 E0.8265 F700
G1 X355.141 Y387.640 E0.9947
G1 X355.141 Y372.300 E1.8212
G1 X352.020 Y372.300 E1.9893
; inner perimeter
G1 X356.181 Y371.820 F3800
G92 E0
G1 X356.181 Y388.120 E0.8783 F1050
G1 X360.260 Y388.120 E1.0981
G1 X360.260 Y371.820 E1.9764
G1 X356.181 Y371.820 E2.1962
; outer perimeter
G1 X356.661 Y372.300 F3800
G92 E0
G1 X356.661 Y387.640 E0.8265 F700
G1 X359.780 Y387.640 E0.9946
G1 X359.780 Y372.300 E1.8212
G1 X356.661 Y372.300 E1.9893
; inner perimeter
G1 X360.820 Y371.820 F3800
G92 E0
G1 X360.820 Y388.120 E0.8783 F1050
G1 X364.900 Y388.120 E1.0981
G1 X364.900 Y371.820 E1.9764
G1 X360.820 Y371.820 E2.1962
; outer perimeter
G1 X361.300 Y372.300 F3800
G92 E0
G1 X361.300 Y387.640 E0.8265 F700
G1 X364.420 Y387.640 E0.9946
G1 X364.420 Y372.300 E1.8212
G1 X361.300 Y372.300 E1.9893
; inner perimeter
G1 X365.461 Y371.820 F3800
G92 E0
G1 X365.461 Y388.120 E0.8783 F1050
G1 X369.540 Y388.120 E1.0981
G1 X369.540 Y371.820 E1.9764
G1 X365.461 Y371.820 E2.1962
; outer perimeter
G1 X365.941 Y372.300 F3800
G92 E0
G1 X365.941 Y387.640 E0.8265 F700
G1 X369.060 Y387.640 E0.9946
G1 X369.060 Y372.300 E1.8212
G1 X365.941 Y372.300 E1.9893
; inner perimeter
G1 X370.100 Y371.820 F3800
G92 E0
G1 X370.100 Y388.120 E0.8783 F1050
G1 X374.181 Y388.120 E1.0981
G1 X374.181 Y371.820 E1.9764
G1 X370.100 Y371.820 E2.1962
; outer perimeter
G1 X370.580 Y372.300 F3800
G92 E0
G1 X370.580 Y387.640 E0.8265 F700
G1 X373.701 Y387.640 E0.9947
G1 X373.701 Y372.300 E1.8212
G1 X370.580 Y372.300 E1.9893
; inner perimeter
G1 X374.741 Y371.820 F3800
G92 E0
G1 X374.741 Y388.120 E0.8783 F1050
G1 X378.820 Y388.120 E1.0981
G1 X378.820 Y371.820 E1.9764
G1 X374.741 Y371.820 E2.1962
; outer perimeter
G1 X375.221 Y372.300 F3800
G92 E0
G1 X375.221 Y387.640 E0.8265 F700
G1 X378.340 Y387.640 E0.9946
G1 X378.340 Y372.300 E1.8212
G1 X375.221 Y372.300 E1.9893
; inner perimeter
G1 X379.380 Y371.820 F3800
G92 E0
G1 X379.380 Y388.120 E0.8783 F1050
G1 X383.461 Y388.120 E1.0981
G1 X383.461 Y371.820 E1.9764
G1 X379.380 Y371.820 E2.1962
; outer perimeter
G1 X379.861 Y372.300 F3800
G92 E0
G1 X379.860 Y387.640 E0.8265 F700
G1 X382.981 Y387.640 E0.9947
G1 X382.981 Y372.300 E1.8212
G1 X379.860 Y372.300 E1.9893
G92 E0
G1 E-1.0000 F1800
; inner perimeter
G1 X388.368 Y380.170 F3800
G1 E0.0000 F1800
G92 E0
G1 X388.165 Y380.392 E0.0162 F1050
G1 X387.985 Y380.634 E0.0325
G1 X387.829 Y380.893 E0.0488
G1 X387.699 Y381.165 E0.0650
G1 X387.596 Y381.449 E0.0813
G1 X387.522 Y381.741 E0.0975
G1 X387.477 Y382.039 E0.1138
G1 X387.462 Y382.324 E0.1291
G1 X387.462 Y390.010 E0.5433
G1 X387.476 Y390.294 E0.5586
G1 X387.520 Y390.592 E0.5748
G1 X387.594 Y390.885 E0.5911
G1 X387.695 Y391.169 E0.6074
G1 X387.824 Y391.442 E0.6236
G1 X387.978 Y391.699 E0.6397
G1 X388.159 Y391.943 E0.6561
G1 X388.362 Y392.166 E0.6724
G1 X388.585 Y392.369 E0.6886
G1 X388.827 Y392.549 E0.7049
G1 X389.086 Y392.704 E0.7212
G1 X389.359 Y392.833 E0.7374
G1 X389.643 Y392.935 E0.7537
G1 X389.936 Y393.008 E0.7699
G1 X390.234 Y393.052 E0.7862
G1 X390.533 Y393.067 E0.8023
G1 X390.877 Y393.053 E0.8209
G1 X391.178 Y393.008 E0.8373
G1 X391.471 Y392.935 E0.8535
G1 X391.755 Y392.833 E0.8698
G1 X392.028 Y392.704 E0.8860
G1 X392.286 Y392.549 E0.9023
G1 X392.529 Y392.369 E0.9185
G1 X392.752 Y392.166 E0.9348
G1 X392.955 Y391.943 E0.9511
G1 X393.135 Y391.701 E0.9673
G1 X393.290 Y391.442 E0.9836
G1 X393.419 Y391.169 E0.9998
G1 X393.520 Y390.885 E1.0161
G1 X393.594 Y390.592 E1.0323
G1 X393.638 Y390.294 E1.0486
G1 X393.652 Y390.010 E1.0639
G1 X393.652 Y382.332 E1.4776
G1 X393.638 Y382.048 E1.4929
G1 X393.594 Y381.750 E1.5092
G1 X393.520 Y381.457 E1.5254
G1 X393.419 Y381.173 E1.5417
G1 X393.290 Y380.900 E1.5579
G1 X393.135 Y380.642 E1.5742
G1 X392.958 Y380.404 E1.5902
G1 X392.753 Y380.176 E1.6067
G1 X392.529 Y379.973 E1.6230
G1 X392.287 Y379.793 E1.6392
G1 X392.028 Y379.638 E1.6555
G1 X391.755 Y379.509 E1.6717
G1 X391.471 Y379.408 E1.6880
G1 X391.178 Y379.334 E1.7042
G1 X390.880 Y379.290 E1.7205
G1 X390.596 Y379.276 E1.7358
G1 X390.519 Y379.276 E1.7400
G1 X390.242 Y379.290 E1.7549
G1 X389.945 Y379.333 E1.7711
G1 X389.652 Y379.405 E1.7874
G1 X389.368 Y379.506 E1.8036
G1 X389.094 Y379.634 E1.8199
G1 X388.835 Y379.789 E1.8361
G1 X388.592 Y379.968 E1.8524
G1 X388.368 Y380.170 E1.8686
; outer perimeter
G1 X388.707 Y380.510 F3800
G92 E0
G1 X388.536 Y380.698 E0.0137 F700
G1 X388.383 Y380.902 E0.0274
G1 X388.252 Y381.120 E0.0411
G1 X388.142 Y381.350 E0.0549
G1 X388.056 Y381.589 E0.0686
G1 X387.993 Y381.836 E0.0823
G1 X387.955 Y382.088 E0.0960
G1 X387.942 Y382.336 E0.1094
G1 X387.942 Y389.998 E0.5223
G1 X387.954 Y390.247 E0.5356
G1 X387.992 Y390.499 E0.5494
G1 X388.053 Y390.745 E0.5631
G1 X388.139 Y390.985 E0.5768
G1 X388.248 Y391.215 E0.5905
G1 X388.378 Y391.432 E0.6041
G1 X388.530 Y391.638 E0.6179
G1 X388.701 Y391.827 E0.6317
G1 X388.890 Y391.998 E0.6454
G1 X389.094 Y392.149 E0.6591
G1 X389.313 Y392.280 E0.6728
G1 X389.543 Y392.389 E0.6865
G1 X389.783 Y392.475 E0.7002
G1 X390.029 Y392.537 E0.7139
G1 X390.281 Y392.574 E0.7277
G1 X390.535 Y392.586 E0.7413
G1 X390.832 Y392.574 E0.7574
G1 X391.085 Y392.537 E0.7711
G1 X391.331 Y392.475 E0.7848
G1 X391.571 Y392.389 E0.7985
G1 X391.801 Y392.280 E0.8123
G1 X392.020 Y392.149 E0.8260
G1 X392.224 Y391.998 E0.8397
G1 X392.413 Y391.827 E0.8534
G1 X392.584 Y391.638 E0.8671
G1 X392.735 Y391.434 E0.8808
G1 X392.866 Y391.215 E0.8946
G1 X392.975 Y390.985 E0.9083
G1 X393.061 Y390.745 E0.9220
G1 X393.122 Y390.499 E0.9357
G1 X393.160 Y390.247 E0.9494
G1 X393.172 Y389.998 E0.9628
G1 X393.172 Y382.344 E1.3753
G1 X393.160 Y382.095 E1.3887
G1 X393.122 Y381.844 E1.4024
G1 X393.061 Y381.597 E1.4161
G1 X392.975 Y381.357 E1.4298
G1 X392.866 Y381.127 E1.4435
G1 X392.735 Y380.909 E1.4572
G1 X392.586 Y380.708 E1.4707
G1 X392.413 Y380.516 E1.4847
G1 X392.224 Y380.345 E1.4984
G1 X392.020 Y380.193 E1.5121
G1 X391.801 Y380.062 E1.5258
G1 X391.571 Y379.953 E1.5395
G1 X391.331 Y379.867 E1.5532
G1 X391.085 Y379.806 E1.5670
G1 X390.833 Y379.768 E1.5807
G1 X390.584 Y379.756 E1.5941
G1 X390.531 Y379.756 E1.5969
G1 X390.289 Y379.768 E1.6100
G1 X390.037 Y379.804 E1.6237
G1 X389.790 Y379.866 E1.6374
G1 X389.550 Y379.951 E1.6511
G1 X389.320 Y380.059 E1.6649
G1 X389.101 Y380.189 E1.6786
G1 X388.896 Y380.340 E1.6923
G1 X388.707 Y380.510 E1.7060
G92 E0
G1 E-1.0000 F1800
; inner perimeter
G1 X401.477 Y382.039 F3800
G1 E0.0000 F1800
G92 E0
G1 X401.462 Y382.324 E0.0154 F1050
G1 X401.462 Y390.010 E0.4295
G1 X401.476 Y390.294 E0.4448
G1 X401.520 Y390.592 E0.4611
G1 X401.594 Y390.885 E0.4773
G1 X401.695 Y391.169 E0.4936
G1 X401.824 Y391.442 E0.5098
G1 X401.978 Y391.699 E0.5260
G1 X402.159 Y391.943 E0.5423
G1 X402.362 Y392.166 E0.5586
G1 X402.585 Y392.369 E0.5749
G1 X402.827 Y392.549 E0.5911
G1 X403.087 Y392.704 E0.6074
G1 X403.367 Y392.836 E0.6241
G1 X403.643 Y392.935 E0.6399
G1 X403.936 Y393.008 E0.6561
G1 X404.237 Y393.053 E0.6725
G1 X404.580 Y393.067 E0.6910
G1 X404.880 Y393.052 E0.7072
G1 X405.178 Y393.008 E0.7235
G1 X405.471 Y392.935 E0.7397
G1 X405.755 Y392.833 E0.7560
G1 X406.028 Y392.704 E0.7723
G1 X406.286 Y392.549 E0.7885
G1 X406.529 Y392.369 E0.8048
G1 X406.752 Y392.166 E0.8210
G1 X406.955 Y391.943 E0.8373
G1 X407.135 Y391.701 E0.8535
G1 X407.290 Y391.442 E0.8698
G1 X407.419 Y391.169 E0.8860
G1 X407.520 Y390.885 E0.9023
G1 X407.594 Y390.592 E0.9186
G1 X407.638 Y390.294 E0.9348
G1 X407.652 Y390.010 E0.9501
G1 X407.652 Y382.332 E1.3638
G1 X407.638 Y382.048 E1.3791
G1 X407.594 Y381.750 E1.3954
G1 X407.520 Y381.457 E1.4117
G1 X407.419 Y381.173 E1.4279
G1 X407.290 Y380.900 E1.4442
G1 X407.135 Y380.642 E1.4604
G1 X406.958 Y380.404 E1.4764
G1 X406.753 Y380.176 E1.4929
G1 X406.529 Y379.973 E1.5092
G1 X406.287 Y379.793 E1.5254
G1 X406.028 Y379.638 E1.5417
G1 X405.755 Y379.509 E1.5580
G1 X405.471 Y379.408 E1.5742
G1 X405.178 Y379.334 E1.5905
G1 X404.880 Y379.290 E1.6067
G1 X404.581 Y379.275 E1.6228
G1 X404.245 Y379.289 E1.6410
G1 X403.945 Y379.333 E1.6573
G1 X403.652 Y379.405 E1.6736
G1 X403.368 Y379.506 E1.6898
G1 X403.094 Y379.634 E1.7061
G1 X402.835 Y379.789 E1.7223
G1 X402.592 Y379.968 E1.7386
G1 X402.368 Y380.170 E1.7548
G1 X402.165 Y380.392 E1.7711
G1 X401.985 Y380.634 E1.7873
G1 X401.829 Y380.893 E1.8036
G1 X401.699 Y381.165 E1.8199
G1 X401.596 Y381.449 E1.8361
G1 X401.522 Y381.741 E1.8524
G1 X401.477 Y382.039 E1.8686
; outer perimeter
G1 X401.955 Y382.088 F3800
G92 E0
G1 X401.942 Y382.336 E0.0134 F700
G1 X401.942 Y389.998 E0.4263
G1 X401.954 Y390.247 E0.4397
G1 X401.992 Y390.499 E0.4534
G1 X402.053 Y390.745 E0.4671
G1 X402.139 Y390.985 E0.4808
G1 X402.248 Y391.215 E0.4945
G1 X402.378 Y391.432 E0.5081
G1 X402.530 Y391.638 E0.5219
G1 X402.701 Y391.827 E0.5357
G1 X402.890 Y391.998 E0.5494
G1 X403.094 Y392.149 E0.5631
G1 X403.313 Y392.280 E0.5768
G1 X403.550 Y392.391 E0.5909
G1 X403.783 Y392.475 E0.6042
